frontend/src/assets/images/Apple Pay.svg

<svg width="40" height="18" viewBox="0 0 40 18" fill="none" xmlns="http://www.w3.org/2000/svg">
<g id="Apple/Google Pay">
<path id="Path 151072" d="M8.1155 2.93111C8.6046 2.3424 8.84521 1.58635 8.78634 0.823242C8.03663 0.899897 7.34225 1.25271 6.8383 1.81304C6.59476 2.08571 6.40747 2.4038 6.28717 2.74905C6.16688 3.09429 6.11595 3.45989 6.13731 3.82487C6.51561 3.8511 6.89451 3.78312 7.2401 3.62703C7.58569 3.47093 7.88718 3.23158 8.1176 2.93041L8.1155 2.93111ZM8.78844 4.01624C7.70262 3.95245 6.77661 4.62329 6.26489 4.62329C5.75317 4.62329 4.95545 4.04848 4.09183 4.04848C3.53385 4.06482 2.98982 4.22663 2.51362 4.51791C2.03742 4.80919 1.64558 5.21982 1.37691 5.70912C0.227286 7.72166 1.05445 10.691 2.20758 12.3194C2.75014 13.1179 3.42098 14.0123 4.2832 13.9801C5.11387 13.9485 5.43282 13.441 6.42261 13.441C7.41241 13.441 7.69981 13.9836 8.59567 13.952C9.49153 13.9205 10.0677 13.1536 10.6075 12.3236C11.0024 11.757 11.3035 11.1305 11.4992 10.4681C11.0088 10.2586 10.5859 9.91766 10.2772 9.48292C9.96844 9.04817 9.78585 8.53656 9.74959 8.00457C9.71333 7.47258 9.8248 6.94092 10.0717 6.46831C10.3186 5.99569 10.6913 5.6005 11.1487 5.32638C10.8862 4.93714 10.5354 4.61557 10.1248 4.38797C9.71416 4.16038 9.25551 4.03323 8.78634 4.01694" fill="white"/>
<g id="Group 136344">
<path id="Path 151073" d="M18.1005 1.74879C18.6293 1.7211 19.158 1.80431 19.6528 1.99308C20.1475 2.18185 20.5973 2.47201 20.9732 2.84491C21.3492 3.21782 21.643 3.66524 21.8357 4.15842C22.0285 4.65161 22.116 5.17966 22.0926 5.70866C22.1148 6.24431 22.0246 6.77868 21.8278 7.27735C21.631 7.77602 21.3319 8.22794 20.9498 8.60402C20.5677 8.98009 20.1111 9.27197 19.6094 9.46087C19.1077 9.64977 18.5719 9.73149 18.0367 9.70079H15.45V13.8205H13.5658V1.74879H18.1005ZM15.45 8.13618H17.5895C19.2179 8.13618 20.1446 7.24172 20.1446 5.74091C20.1446 4.20785 19.2186 3.34564 17.5895 3.34564H15.4164V8.13618H15.45ZM22.5714 11.3607C22.5714 9.82767 23.7532 8.86942 25.8611 8.74184L28.2865 8.61846V7.94762C28.2865 6.95782 27.6157 6.38301 26.5299 6.38301C26.1179 6.32975 25.7009 6.43073 25.359 6.66653C25.0171 6.90232 24.7744 7.25626 24.6778 7.66021H22.9534C23.0495 6.06336 24.4255 4.8815 26.5943 4.8815C28.7338 4.8815 30.107 5.99958 30.107 7.78779V13.8555H28.3826V12.4185H28.3503C28.0741 12.9105 27.6701 13.3186 27.1809 13.5997C26.6918 13.8808 26.1357 14.0244 25.5716 14.0154C23.7855 14.0119 22.5714 12.926 22.5714 11.3614V11.3607ZM28.2865 10.563V9.86201L26.1135 9.98959C25.0276 10.0534 24.4206 10.5322 24.4206 11.299C24.4206 12.0659 25.0592 12.5762 26.0174 12.5762C26.2996 12.5977 26.5832 12.5623 26.8514 12.472C27.1196 12.3816 27.3669 12.2383 27.5786 12.0505C27.7903 11.8627 27.9621 11.6342 28.0837 11.3787C28.2053 11.1231 28.2743 10.8457 28.2865 10.563ZM31.7038 17.1095V15.6374C31.8942 15.6641 32.0865 15.6749 32.2786 15.6697C32.6481 15.6961 33.0141 15.5827 33.3039 15.352C33.5937 15.1212 33.7862 14.79 33.8433 14.424C33.8433 14.3918 34.0031 13.8815 34.0031 13.8815L30.8101 5.07007H32.7588L34.995 12.2559H35.0272L37.2592 5.07007H39.175L35.8887 14.3666C35.1226 16.506 34.2603 17.1768 32.4399 17.1768C32.3123 17.1418 31.8616 17.1418 31.7052 17.1095H31.7038Z" fill="white"/>
</g>
</g>
</svg>

<svg xmlns="http://www.w3.org/2000/svg" width="40" height="18" fill="none"><path fill="#fff" d="M8.116 2.931c.489-.589.73-1.345.67-2.108-.75.077-1.444.43-1.948.99a2.78 2.78 0 0 0-.7 2.012 2.3 2.3 0 0 0 1.98-.895zm.672 1.085c-1.085-.064-2.011.607-2.523.607s-1.31-.575-2.173-.575A3.2 3.2 0 0 0 1.377 5.71c-1.15 2.013-.323 4.982.83 6.61.543.799 1.214 1.693 2.076 1.661.83-.032 1.15-.539 2.14-.539s1.277.543 2.173.511c.896-.031 1.472-.798 2.011-1.628a6.4 6.4 0 0 0 .892-1.856 2.892 2.892 0 0 1-.35-5.142 2.97 2.97 0 0 0-2.363-1.31M18.1 1.749a3.8 3.8 0 0 1 3.993 3.96A3.84 3.84 0 0 1 18.037 9.7H15.45v4.12h-1.884V1.749zm-2.65 6.387h2.14c1.628 0 2.555-.894 2.555-2.395 0-1.533-.926-2.395-2.555-2.395h-2.174v4.79zm7.121 3.225c0-1.533 1.182-2.492 3.29-2.62l2.425-.123v-.67c0-.99-.67-1.565-1.756-1.565a1.68 1.68 0 0 0-1.852 1.277h-1.725c.096-1.597 1.473-2.778 3.641-2.778 2.14 0 3.513 1.118 3.513 2.906v6.067h-1.724v-1.437h-.033a3.13 3.13 0 0 1-2.778 1.597c-1.787-.003-3-1.089-3-2.654m5.715-.798v-.701l-2.173.128c-1.085.063-1.692.542-1.692 1.309s.638 1.277 1.596 1.277a2.11 2.11 0 0 0 2.27-2.013m3.418 6.547v-1.473q.286.04.575.033a1.477 1.477 0 0 0 1.564-1.246c0-.032.16-.542.16-.542L30.81 5.07h1.949l2.236 7.186h.032L37.26 5.07h1.916l-3.286 9.297c-.766 2.139-1.629 2.81-3.45 2.81-.127-.035-.577-.035-.734-.067z"/></svg>
